app/assets/icons/info_white.svg

<?xml version="1.0" encoding="UTF-8" standalone="no"?>
<svg width="15px" height="15px" viewBox="0 0 15 15" version="1.1" xmlns="http://www.w3.org/2000/svg" xmlns:xlink="http://www.w3.org/1999/xlink">
    <!-- Generator: sketchtool 39.1 (31720) - http://www.bohemiancoding.com/sketch -->
    <title>F2EF4B8D-7224-41C8-97BF-6ED46F9C517D</title>
    <desc>Created with sketchtool.</desc>
    <defs>
        <circle id="path-1" cx="7.5" cy="7.5" r="7.5"></circle>
        <mask id="mask-2" maskContentUnits="userSpaceOnUse" maskUnits="objectBoundingBox" x="0" y="0" width="15" height="15" fill="white">
            <use xlink:href="#path-1"></use>
        </mask>
    </defs>
    <g id="UI-Kit" stroke="none" stroke-width="1" fill="none" fill-rule="evenodd">
        <g transform="translate(-495.000000, -3058.000000)" id="info-white">
            <g transform="translate(495.000000, 3058.000000)">
                <g id="Group-5">
                    <use id="Oval-7" stroke="#FFFFFF" mask="url(#mask-2)" stroke-width="2" xlink:href="#path-1"></use>
                    <path d="M9.17773438,11.1621094 L9.04882812,11.6894531 C8.66210744,11.8417976 8.35351678,11.9580074 8.12304688,12.0380859 C7.89257697,12.1181645 7.62500152,12.1582031 7.3203125,12.1582031 C6.85156016,12.1582031 6.48730599,12.0439465 6.22753906,11.8154297 C5.96777214,11.5869129 5.83789062,11.2968768 5.83789062,10.9453125 C5.83789062,10.8085931 5.84765615,10.668946 5.8671875,10.5263672 C5.88671885,10.3837883 5.91796854,10.2226571 5.9609375,10.0429688 L6.44140625,8.33203125 C6.48437521,8.16796793 6.52050767,8.01269604 6.54980469,7.86621094 C6.57910171,7.71972583 6.59375,7.58593811 6.59375,7.46484375 C6.59375,7.24609266 6.54882857,7.09375043 6.45898438,7.0078125 C6.36914018,6.92187457 6.19726689,6.87890625 5.94335938,6.87890625 C5.81835875,6.87890625 5.69043034,6.8984373 5.55957031,6.9375 C5.42871028,6.9765627 5.31640672,7.0136717 5.22265625,7.04882812 L5.3515625,6.52148438 C5.66797033,6.39257748 5.97070168,6.28222702 6.25976562,6.19042969 C6.54882957,6.09863235 6.82226434,6.05273438 7.08007812,6.05273438 C7.5449242,6.05273438 7.90331905,6.16503794 8.15527344,6.38964844 C8.40722782,6.61425894 8.53320312,6.9062482 8.53320312,7.265625 C8.53320312,7.33984412 8.52441415,7.47070219 8.50683594,7.65820312 C8.48925772,7.84570406 8.45703148,8.01757734 8.41015625,8.17382812 L7.9296875,9.87890625 C7.8906248,10.0156257 7.85546891,10.1718741 7.82421875,10.3476562 C7.79296859,10.5234384 7.77734375,10.6562496 7.77734375,10.7460938 C7.77734375,10.9726574 7.82812449,11.1269527 7.9296875,11.2089844 C8.03125051,11.291016 8.20703,11.3320312 8.45703125,11.3320312 C8.57421934,11.3320312 8.70703051,11.3115236 8.85546875,11.2705078 C9.00390699,11.229492 9.11132779,11.1933595 9.17773438,11.1621094 L9.17773438,11.1621094 Z M9.30078125,4.0078125 C9.30078125,4.30468898 9.18847769,4.55761614 8.96386719,4.76660156 C8.73925669,4.97558698 8.46875158,5.08007812 8.15234375,5.08007812 C7.83593592,5.08007812 7.56445426,4.97558698 7.33789062,4.76660156 C7.11132699,4.55761614 6.99804688,4.30468898 6.99804688,4.0078125 C6.99804688,3.71093602 7.11132699,3.4570323 7.33789062,3.24609375 C7.56445426,3.0351552 7.83593592,2.9296875 8.15234375,2.9296875 C8.46875158,2.9296875 8.73925669,3.0351552 8.96386719,3.24609375 C9.18847769,3.4570323 9.30078125,3.71093602 9.30078125,4.0078125 L9.30078125,4.0078125 Z" id="i" fill="#FFFFFF"></path>
                </g>
            </g>
        </g>
    </g>
</svg>

<svg width="15" height="15" viewBox="0 0 15 15" xmlns="http://www.w3.org/2000/svg" xmlns:xlink="http://www.w3.org/1999/xlink"><title>F2EF4B8D-7224-41C8-97BF-6ED46F9C517D</title><defs><circle id="a" cx="7.5" cy="7.5" r="7.5"/><mask id="b" x="0" y="0" width="15" height="15" fill="#fff"><use xlink:href="#a"/></mask></defs><g fill="none" fill-rule="evenodd"><use stroke="#FFF" mask="url(#b)" stroke-width="2" xlink:href="#a"/><path d="M9.178 11.162l-.13.527c-.386.152-.694.268-.925.348-.23.08-.498.12-.803.12-.468 0-.833-.114-1.092-.343-.26-.228-.39-.518-.39-.87 0-.136.01-.276.03-.42.02-.14.05-.302.093-.482l.48-1.71c.044-.165.08-.32.11-.467.03-.146.044-.28.044-.4 0-.22-.045-.372-.135-.458-.09-.086-.263-.13-.517-.13-.125 0-.253.02-.383.06-.13.04-.244.076-.337.11l.13-.527c.315-.127.618-.238.907-.33.29-.09.562-.137.82-.137.465 0 .823.112 1.075.337.252.224.378.516.378.876 0 .074-.01.205-.026.392-.018.188-.05.36-.097.516L7.93 9.88c-.04.136-.075.292-.106.468-.03.175-.047.308-.047.398 0 .227.05.38.153.463.1.08.277.122.527.122.117 0 .25-.02.398-.06.15-.043.256-.08.323-.11zM9.3 4.008c0 .297-.112.55-.336.76-.225.208-.495.312-.812.312-.316 0-.588-.104-.814-.313-.227-.21-.34-.462-.34-.76 0-.296.113-.55.34-.76.226-.212.498-.317.814-.317.317 0 .587.105.812.316.224.21.337.465.337.762z" fill="#FFF"/></g></svg>
